include/LD/assets/icons/action/new_custom82.svg

<?xml version="1.0"?><svg xmlns="http://www.w3.org/2000/svg" width="52" height="52" viewBox="0 0 52 52"><g fill="#fff"><path d="m48.5 21.5h-15.8c-0.8 0-1.5 0.7-1.5 1.5v0.7c0 1.2-1 2.2-2.3 2.2-1.2 0-2.3-1-2.3-2.2v-0.7c0-0.8-0.7-1.5-1.5-1.5h-3.8 0.1c-4.4 0.2-8.3 2.8-10.4 6.4-0.8-0.3-1.6-0.4-2.4-0.4-3.8 0-6.8 3-6.8 6.7s3.2 6.8 7 6.8c0.8 0 1.7-0.1 2.4-0.4 2.1 3.7 6 6.2 10.4 6.4 7.3 0.4 13.4-5.5 13.4-12.8 0-0.4 0-0.9-0.1-1.3-0.1-0.7 0.5-1.5 1.2-1.6l12.7-2.8c0.7-0.1 1.2-0.7 1.2-1.5v-4c0-0.8-0.7-1.5-1.5-1.5z m-39.8 15c-1.3 0-2.3-1-2.3-2.2s1-2.2 2.3-2.2c0.3 0 0.7 0.1 0.9 0.2-0.2 0.9-0.2 1.9-0.2 2.8 0 0.5 0.1 0.8 0.2 1.2-0.3 0.1-0.6 0.2-0.9 0.2z m20.3-20.3c1.3 0 2.3-1 2.3-2.2v-6.8c-0.1-1.2-1.1-2.2-2.3-2.2-1.3 0-2.3 1-2.3 2.2v6.8c0 1.3 1 2.2 2.3 2.2z m-10.8 0.8c0.5 0.5 1.1 0.7 1.7 0.7 0.5 0 1.1-0.1 1.5-0.5 1-0.8 1.1-2.2 0.2-3.1l-4.5-5.2c-0.8-1-2.3-1-3.2-0.2-1 0.8-1.1 2.2-0.2 3.1l4.5 5.2z m19.8 0.7c0.6 0 1.3-0.3 1.7-0.7l4.5-5.2c0.8-1 0.7-2.4-0.2-3.1-1-0.8-2.4-0.7-3.2 0.2l-4.5 5.2c-0.8 1-0.7 2.4 0.2 3.1 0.4 0.4 1 0.5 1.5 0.5z"></path></g></svg>

<svg xmlns="http://www.w3.org/2000/svg" x="0px" y="0px"
	 width="52px" height="52px" viewBox="0 0 52 52" enable-background="new 0 0 52 52" xml:space="preserve">
<g>
	<path fill="#FFFFFF" d="M48.5,21.5H32.7c-0.8,0-1.5,0.7-1.5,1.5v0.7c0,1.2-1,2.2-2.3,2.2l0,0c-1.2,0-2.3-1-2.3-2.2V23
		c0-0.8-0.7-1.5-1.5-1.5h-3.8h0.1c-4.4,0.2-8.3,2.8-10.4,6.4c-0.8-0.3-1.6-0.4-2.4-0.4c-3.8,0-6.8,3-6.8,6.7S5,41,8.8,41
		c0.8,0,1.7-0.1,2.4-0.4c2.1,3.7,6,6.2,10.4,6.4C28.9,47.4,35,41.5,35,34.2c0-0.4,0-0.9-0.1-1.3c-0.1-0.7,0.5-1.5,1.2-1.6l12.7-2.8
		c0.7-0.1,1.2-0.7,1.2-1.5v-4C50,22.2,49.3,21.5,48.5,21.5z M8.7,36.5c-1.3,0-2.3-1-2.3-2.2s1-2.2,2.3-2.2c0.3,0,0.7,0.1,0.9,0.2
		c-0.2,0.9-0.2,1.9-0.2,2.8c0,0.5,0.1,0.8,0.2,1.2C9.3,36.4,9,36.5,8.7,36.5z"/>
	<path fill="#FFFFFF" d="M29,16.2c1.3,0,2.3-1,2.3-2.2V7.2C31.2,6,30.2,5,29,5c-1.3,0-2.3,1-2.3,2.2V14C26.7,15.3,27.7,16.2,29,16.2
		z"/>
	<path fill="#FFFFFF" d="M18.2,17c0.5,0.5,1.1,0.7,1.7,0.7c0.5,0,1.1-0.1,1.5-0.5c1-0.8,1.1-2.2,0.2-3.1l-4.5-5.2
		c-0.8-1-2.3-1-3.2-0.2c-1,0.8-1.1,2.2-0.2,3.1L18.2,17z"/>
	<path fill="#FFFFFF" d="M38,17.7c0.6,0,1.3-0.3,1.7-0.7l4.5-5.2c0.8-1,0.7-2.4-0.2-3.1c-1-0.8-2.4-0.7-3.2,0.2l-4.5,5.2
		c-0.8,1-0.7,2.4,0.2,3.1C36.9,17.6,37.5,17.7,38,17.7z"/>
</g>
</svg>
